contributed-vectors/directv.svg

<?xml version="1.0" encoding="UTF-8" standalone="no"?>
<svg
   xmlns:dc="http://purl.org/dc/elements/1.1/"
   xmlns:cc="http://creativecommons.org/ns#"
   xmlns:rdf="http://www.w3.org/1999/02/22-rdf-syntax-ns#"
   xmlns:svg="http://www.w3.org/2000/svg"
   xmlns="http://www.w3.org/2000/svg"
   xmlns:sodipodi="http://sodipodi.sourceforge.net/DTD/sodipodi-0.dtd"
   xmlns:inkscape="http://www.inkscape.org/namespaces/inkscape"
   viewBox="0 0 192 192"
   version="1.1"
   id="svg16"
   sodipodi:docname="directv.svg"
   inkscape:version="0.92.4 (5da689c313, 2019-01-14)">
  <metadata
     id="metadata20">
    <rdf:RDF>
      <cc:Work
         rdf:about="">
        <dc:format>image/svg+xml</dc:format>
        <dc:type
           rdf:resource="http://purl.org/dc/dcmitype/StillImage" />
        <dc:title></dc:title>
      </cc:Work>
    </rdf:RDF>
  </metadata>
  <sodipodi:namedview
     pagecolor="#ffffff"
     bordercolor="#666666"
     borderopacity="1"
     objecttolerance="10"
     gridtolerance="10"
     guidetolerance="10"
     inkscape:pageopacity="0"
     inkscape:pageshadow="2"
     inkscape:window-width="1920"
     inkscape:window-height="1017"
     id="namedview18"
     showgrid="true"
     inkscape:zoom="3.4766083"
     inkscape:cx="92.64584"
     inkscape:cy="98.633309"
     inkscape:window-x="-8"
     inkscape:window-y="-8"
     inkscape:window-maximized="1"
     inkscape:current-layer="svg16"
     inkscape:snap-global="true">
    <inkscape:grid
       type="xygrid"
       id="grid827"
       spacingx="4"
       spacingy="4" />
  </sodipodi:namedview>
  <defs
     id="defs4">
    <style
       id="style2">.a{fill:none;stroke:#b1b5bd;stroke-linecap:round;stroke-linejoin:round;isolation:isolate;opacity:0.63;}</style>
  </defs>
  <rect
     class="a"
     x="20"
     y="20"
     width="152"
     height="124"
     rx="10"
     id="rect6"
     style="opacity:1;isolation:isolate;fill:#56595b;stroke:none;stroke-linecap:round;stroke-linejoin:round" />
  <path
     style="fill:#ffffff"
     d="M 69.715,116.20774 V 57.242226 c 0,0 18.792262,0 28.188393,0 22.293897,0 26.894027,16.707864 26.894027,28.188393 0,6.232127 0,18.696381 0,18.696381 h -14.81329 c 0,0 0,-10.450798 0,-15.676197 0,-10.688362 -2.84028,-18.121109 -14.813286,-18.121109 -3.643397,0 -10.930192,0 -10.930192,0 v 46.021866 z"
     id="path835"
     inkscape:connector-curvature="0"
     sodipodi:nodetypes="ccssccssccc" />
  <path
     style="fill:#728dbe"
     d="M 172 88 C 172 88 136 92 100 104 C 72.752982 113.08234 20 136 20 136 L 20 162 C 20 167.54 24.46 172 30 172 L 162 172 C 167.54 172 172 167.54 172 162 L 172 88 z "
     id="path833" />
  <path
     style="fill:#ffffff;stroke:none;stroke-width:1px;stroke-linecap:butt;stroke-linejoin:miter;stroke-opacity:1"
     d="m 75.343,132.21 c 0,0 21.870858,-14.03445 48.89823,-23.01093 0,0 -3.37051,22.57948 -25.45584,22.57948 -7.815454,0 -23.44239,0.43145 -23.44239,0.43145 z"
     id="path837"
     inkscape:connector-curvature="0"
     sodipodi:nodetypes="ccsc" />
</svg>

<svg xmlns="http://www.w3.org/2000/svg" viewBox="0 0 192 192"><rect width="152" height="124" x="20" y="20" rx="10" style="opacity:1;isolation:isolate;fill:#56595b;stroke:none;stroke-linecap:round;stroke-linejoin:round"/><path d="M69.715 116.208V57.242h28.188c22.294 0 26.894 16.708 26.894 28.189v18.696h-14.813V88.451c0-10.689-2.84-18.121-14.813-18.121H84.24v46.022z" style="fill:#fff"/><path d="M172 88s-36 4-72 16c-27.247 9.082-80 32-80 32v26c0 5.54 4.46 10 10 10h132c5.54 0 10-4.46 10-10V88z" style="fill:#728dbe"/><path d="M75.343 132.21s21.87-14.034 48.898-23.01c0 0-3.37 22.579-25.456 22.579-7.815 0-23.442.431-23.442.431z" style="fill:#fff;stroke:none;stroke-width:1px;stroke-linecap:butt;stroke-linejoin:miter;stroke-opacity:1"/></svg>
